src/assets/images/logo-bsc-anatomy.svg

<?xml version="1.0" encoding="UTF-8"?>
<svg width="170px" height="34px" viewBox="0 0 170 34" version="1.1" xmlns="http://www.w3.org/2000/svg" xmlns:xlink="http://www.w3.org/1999/xlink">
    <title>Group</title>
    <g id="Page-1" stroke="none" stroke-width="1" fill="none" fill-rule="evenodd">
        <g id="Group" fill-rule="nonzero">
            <path d="M69.333,32.583 L67.083,32.583 L67.083,33.25 L73.75,33.25 L73.75,32.583 L72,32.583 L72,21 C71.5,21.583 70.583,21.583 69.667,21.583 L67.417,21.583 L67.417,22.25 L69.333,22.25 L69.333,32.583" id="Path" fill="#003666"></path>
            <path d="M27.5,32.583 L25.25,32.583 L25.25,33.25 L31.917,33.25 L31.917,32.583 L30.167,32.583 L30.167,21 C29.667,21.583 28.75,21.583 27.833,21.583 L25.667,21.583 L25.667,22.25 L27.417,22.25 L27.5,32.583" id="Path" fill="#003666"></path>
            <path d="M77,32.583 L74.833,32.583 L74.833,33.25 L81.583,33.25 L81.583,32.583 L79.667,32.583 L79.667,22.333 L84.417,22.333 L84.417,32.583 L82.667,32.583 L82.667,33.25 L89.25,33.25 L89.25,32.583 L87.167,32.583 L87.167,21 C86.583,21.583 85.667,21.583 84.75,21.583 L79.75,21.583 L79.75,17.75 C79.75,15.167 80.667,13.083 83.667,13.083 C84.833,13.083 85.667,13.583 85.667,14.083 C85.667,14.417 85.417,14.5 85.167,14.667 C84.75,14.833 84.5,15.25 84.5,15.75 C84.5,16.5 85.167,17 85.833,17 C86.75,17 87.417,16.25 87.417,15.25 C87.417,14 86.167,12.417 83.5,12.417 C78.833,12.417 77.167,16.167 77.167,19.75 L77.167,21.583 L74.75,21.583 L74.75,22.25 L77.167,22.25 L77.167,32.583" id="Path" fill="#003666"></path>
            <path d="M6.833,24.75 C9.667,25.333 11,27.083 11,29 C11,31.167 9.25,32.917 6.583,32.917 C3.917,32.917 1.25,30.75 0.833,26.25 L0.083,26.25 L0.083,33.417 L0.833,33.417 C0.917,32.917 1.083,32.583 1.667,32.583 C2.75,32.583 3.917,33.667 6.583,33.667 C10.583,33.667 12.75,31.25 12.75,27.5 C12.75,24.583 11.333,22.417 7.5,21.5 L6,21.167 C2.583,20.417 1.583,18.833 1.583,17.25 C1.583,15.083 3.25,13.583 5.333,13.583 C8.5,13.583 10.417,16.167 10.833,19.333 L11.667,19.333 L11.667,13.417 L10.917,13.417 C10.833,13.75 10.667,14.167 10.083,14.167 C9.083,14.167 8.333,12.75 5.333,12.75 C2.333,12.75 0,14.917 0,18.167 C0,21.667 1.75,23.417 5.333,24.333 L6.833,24.75" id="Path" fill="#003666"></path>
            <path d="M60.333,31.083 C60.333,33 61.667,33.75 63.417,33.75 C65.5,33.75 66.25,32.583 66.583,31.833 L66.083,31.5 C65.75,32.083 65.167,32.833 64.25,32.833 C63.5,32.833 63,32.5 63,31.333 L63,22.333 L66.083,22.333 L66.083,21.667 L63,21.667 L63,18.167 L62.417,18.167 C61.917,20.917 60.667,21.667 58.083,21.667 L58.083,22.333 L60.333,22.333 L60.333,31.083" id="Path" fill="#003666"></path>
            <path d="M51.917,32.583 L53.917,32.583 L53.917,24 C53.917,22.667 53.167,22.083 52.25,22.083 C50.5,22.083 49.25,23.75 48.667,24.583 L48.667,32.667 L50.667,32.667 L50.667,33.25 L43.917,33.25 L43.917,32.583 L46,32.583 L46,22.333 L43.917,22.333 L43.917,21.667 L46.083,21.667 C47.417,21.667 48.083,21.667 48.5,21.083 L48.5,23.417 L48.583,23.417 C49.167,22.75 50.5,21.083 52.833,21.083 C55.333,21.083 56.583,22.667 56.583,24.667 L56.583,32.667 L58.667,32.667 L58.667,33.25 L52,33.25 L51.917,32.583 Z" id="Path" fill="#003666"></path>
            <path d="M23.75,29.417 C23.5,30.917 22.25,32.75 20.167,32.75 C18.167,32.75 17.167,31.583 17.167,28.917 L17.167,26.25 C17.167,23.667 18.083,21.833 20.25,21.833 C21.5,21.833 22.25,22.5 22.25,23 C22.25,23.25 22.083,23.417 21.917,23.583 C21.667,23.833 21.583,24.083 21.583,24.417 C21.583,25.083 22.167,25.583 22.833,25.583 L22.917,25.583 C23.667,25.583 24.333,25 24.333,24 C24.333,22.583 22.667,21.083 20.083,21.083 C16.833,21.083 14.25,23.583 14.25,27.417 C14.25,30.833 16,33.667 19.833,33.667 C22.417,33.667 24.083,31.583 24.417,29.333 L23.75,29.333" id="Path" fill="#003666"></path>
            <path d="M98.583,29.417 C98.333,30.917 97.083,32.75 95,32.75 C93,32.75 92,31.583 92,28.917 L92,26.25 C92,23.667 92.917,21.833 95.083,21.833 C96.333,21.833 97.083,22.5 97.083,23 C97.083,23.25 96.917,23.417 96.75,23.583 C96.583,23.833 96.417,24.083 96.417,24.417 C96.417,25 96.917,25.583 97.667,25.583 C98.417,25.583 99.083,25 99.083,24 C99.083,22.583 97.417,21.083 94.833,21.083 C91.583,21.083 89,23.583 89,27.417 C89,30.833 90.75,33.667 94.583,33.667 C97.167,33.667 98.833,31.583 99.167,29.333 L98.583,29.417 Z" id="Path" fill="#003666"></path>
            <path d="M38,21.167 C41.5,21.167 43.083,24 43.083,25.75 L43.083,25.75 L43.083,26.25 C43.083,26.333 43,26.417 42.833,26.417 L42.833,26.417 L35.667,26.417 L35.667,29.167 C35.667,31.5 36.75,32.75 38.667,32.75 C40.583,32.75 41.833,31 42.167,29.333 L42.167,29.333 L42.167,29.333 L42.917,29.333 C42.417,31.917 40.583,33.667 38.167,33.667 C35.083,33.667 32.75,31.333 32.75,27.417 C32.75,24.167 34.917,21.167 38,21.167 Z M38.25,21.75 C36.833,21.75 35.917,22.917 35.917,24.75 L35.917,24.75 L35.917,25.667 L40.417,25.667 C40.5,25.667 40.583,25.583 40.583,25.5 L40.583,25.5 L40.583,24.75 C40.583,22.833 39.667,21.75 38.25,21.75 Z" id="Combined-Shape" fill="#003666"></path>
            <path d="M19.667,0 C23.167,0 25.083,1.583 25.083,3.833 C25.083,6.5 23.167,7.75 21.167,7.917 L21.167,7.917 L21.167,8.083 C23.5,8.167 25.833,9.583 25.833,12.25 C25.833,15.583 22.833,17 20.333,17 L20.333,17 L13,17 L13,16.333 L14.833,16.333 L14.833,0.583 L13,0.583 L13,0 Z M18.75,8.25 L17.5,8.25 L17.5,16.417 L19,16.417 C21.5,16.417 22.917,14.667 22.917,12.25 C22.917,10 21.417,8.25 18.75,8.25 L18.75,8.25 Z M18.25,0.667 L17.5,0.667 L17.5,7.667 L18.333,7.667 C20.5,7.667 22.333,6.75 22.333,4.083 C22.333,2.167 20.917,0.667 18.25,0.667 L18.25,0.667 Z" id="Combined-Shape" fill="#003666"></path>
            <path d="M32.083,6.417 C35.167,6.417 37.25,8.917 37.25,11.917 C37.25,14.917 35.167,17.417 32.083,17.417 C29,17.417 26.917,14.917 26.917,11.917 C26.917,8.833 29,6.417 32.083,6.417 Z M32,7.083 C29.583,7.083 29.417,9.167 29.417,11.25 L29.4176954,12.6837437 C29.4335078,14.7037855 29.7356176,16.667 32,16.667 C34.333,16.667 34.583,14.583 34.583,12.5 L34.5825162,11.0662563 C34.5712881,9.04621453 34.3459118,7.083 32,7.083 Z" id="Combined-Shape" fill="#003666"></path>
            <path d="M58.417,6.417 C61.5,6.417 63.583,8.917 63.583,11.917 C63.583,14.917 61.417,17.417 58.417,17.417 C55.333,17.417 53.25,14.917 53.25,11.917 C53.25,8.917 55.333,6.417 58.417,6.417 Z M58.25,7.083 C55.833,7.083 55.667,9.167 55.667,11.25 L55.6676954,12.6837437 C55.6835078,14.7037855 55.9856176,16.667 58.25,16.667 C60.583,16.667 60.833,14.583 60.833,12.5 L60.833,12.5 L60.833,11.25 C60.833,9.167 60.667,7.083 58.25,7.083 Z" id="Combined-Shape" fill="#003666"></path>
            <path d="M70.75,16.333 L72.167,16.333 L72.167,9.083 C72.167,7.833 71.417,7.417 70.583,7.417 C69.5,7.417 68.333,8.5 67.833,9.583 L67.833,16.333 L69.583,16.333 L69.583,17 L63.417,17 L63.417,16.333 L65.333,16.333 L65.333,7.5 L63.417,7.5 L63.417,6.833 L65.25,6.833 C66.333,6.833 67.25,6.833 67.667,6.333 L67.667,8.25 L67.75,8.25 C68.667,7.083 70,6.25 71.5,6.25 C73.833,6.25 74.667,7.917 74.667,9.333 L74.667,16.333 L76.083,16.333 L76.083,17 L70.75,17 L70.75,16.333 Z" id="Path" fill="#003666"></path>
            <path d="M42.083,12.833 C43.5,13 44.083,13.833 44.083,14.75 C44.083,16 43.083,16.667 41.917,16.667 C39.75,16.667 38.917,14.75 38.833,13.5 L38.25,13.5 L38.333,17.25 L38.833,17.25 C38.917,16.833 39,16.75 39.25,16.75 C39.75,16.75 40.333,17.417 41.917,17.417 C44.25,17.417 45.583,16 45.583,13.833 C45.583,12.25 44.667,10.917 42.75,10.583 L41.583,10.417 C40,10.167 39.5,9.667 39.5,8.75 C39.5,7.833 40.25,7.083 41.583,7.083 C43.083,7.083 43.917,8 44.25,9.5 L44.75,9.5 L44.667,6.5 L44.167,6.5 C44.167,6.75 44,6.917 43.833,6.917 C43.417,6.917 42.833,6.333 41.5,6.333 C39.667,6.333 38.333,7.583 38.333,9.417 C38.333,11.667 39.833,12.5 41.417,12.75 L42.083,12.833" id="Path" fill="#003666"></path>
            <path d="M52.917,15.417 C52.667,15.833 52.167,16.417 51.417,16.417 C50.75,16.417 50.167,16.167 50.167,15.167 L50.167,7.5 L52.917,7.5 L52.917,6.833 L50.167,6.833 L50.167,3.333 L49.667,3.333 C49.25,5.75 47.917,6.833 45.917,6.833 L45.917,7.5 L47.667,7.5 L47.667,15.167 C47.667,16.833 48.833,17.5 50.5,17.5 C52,17.5 52.833,16.75 53.25,16.083 L52.917,15.417" id="Path" fill="#003666"></path>
            <polygon id="Path" fill="#CCCCCC" points="112 0 114 0 114 34 112 34"></polygon>
            <path d="M131.9472,19.75544 L135.72792,19.75544 L133.8588,13.74452 L131.9472,19.75544 Z M129.97188,26 L126.02124,26 L131.33124,10.83464 L136.45008,10.83464 L141.7176,26 L137.72448,26 L136.57752,22.7078 L131.07636,22.7078 L129.97188,26 Z" id="Shape" fill="#000000"></path>
            <path d="M143.28936,10.83464 L148.87548,10.83464 C150.13572,10.83464 151.25436,11.00456 152.2314,11.3444 C153.20844,11.68424 154.0191,12.1763 154.66338,12.82058 C155.30766,13.46486 155.79264,14.25074 156.11832,15.17822 C156.444,16.1057 156.60684,17.15 156.60684,18.31112 C156.60684,19.4864 156.444,20.5484 156.11832,21.49712 C155.79264,22.44584 155.30766,23.2565 154.66338,23.9291 C154.0191,24.6017 153.21198,25.115 152.24202,25.469 C151.27206,25.823 150.14988,26 148.87548,26 L143.28936,26 L143.28936,10.83464 Z M147.00636,23.04764 L148.34448,23.04764 C149.16576,23.04764 149.86314,22.93436 150.43662,22.7078 C151.0101,22.48124 151.48092,22.1591 151.84908,21.74138 C152.21724,21.32366 152.48274,20.8316 152.64558,20.2652 C152.80842,19.6988 152.88984,19.07576 152.88984,18.39608 C152.88984,17.7164 152.80488,17.09336 152.63496,16.52696 C152.46504,15.96056 152.19954,15.47558 151.83846,15.07202 C151.47738,14.66846 151.0101,14.3534 150.43662,14.12684 C149.86314,13.90028 149.16576,13.787 148.34448,13.787 L147.00636,13.787 L147.00636,23.04764 Z" id="Shape" fill="#000000"></path>
            <path d="M167.60916,14.02064 C167.08524,13.85072 166.54716,13.72682 165.99492,13.64894 C165.44268,13.57106 164.91876,13.53212 164.42316,13.53212 C164.13996,13.53212 163.86738,13.55336 163.60542,13.59584 C163.34346,13.63832 163.1169,13.70558 162.92574,13.79762 C162.73458,13.88966 162.58236,14.0171 162.46908,14.17994 C162.3558,14.34278 162.29916,14.55164 162.29916,14.80652 C162.31332,15.24548 162.5328,15.60656 162.9576,15.88976 C163.3824,16.17296 164.06916,16.50572 165.01788,16.88804 C165.6126,17.14292 166.15422,17.40134 166.64274,17.6633 C167.13126,17.92526 167.57022,18.23678 167.95962,18.59786 C168.34902,18.95894 168.64638,19.38728 168.8517,19.88288 C169.05702,20.37848 169.15968,20.9732 169.15968,21.66704 C169.15968,22.43168 169.00392,23.10074 168.6924,23.67422 C168.38088,24.2477 167.95608,24.7256 167.418,25.10792 C166.87992,25.49024 166.26042,25.77698 165.5595,25.96814 C164.85858,26.1593 164.10456,26.25488 163.29744,26.25488 C162.58944,26.25488 161.8248,26.20178 161.00352,26.09558 C160.18224,25.98938 159.38928,25.81592 158.62464,25.5752 L159.21936,22.6016 C159.92736,22.84232 160.61766,23.01932 161.29026,23.1326 C161.96286,23.24588 162.5682,23.30252 163.10628,23.30252 C163.9134,23.30252 164.50458,23.18216 164.87982,22.94144 C165.25506,22.70072 165.44268,22.3538 165.44268,21.90068 C165.44268,21.67412 165.39312,21.47234 165.294,21.29534 C165.19488,21.11834 165.04266,20.94842 164.83734,20.78558 C164.63202,20.62274 164.36298,20.46344 164.03022,20.30768 C163.69746,20.15192 163.28328,19.97492 162.78768,19.77668 C162.20712,19.55012 161.6655,19.29878 161.16282,19.02266 C160.66014,18.74654 160.2141,18.42794 159.8247,18.06686 C159.4353,17.70578 159.13086,17.2916 158.91138,16.82432 C158.6919,16.35704 158.58216,15.81188 158.58216,15.18884 C158.58216,14.38172 158.74146,13.67726 159.06006,13.07546 C159.37866,12.47366 159.807,11.99222 160.34508,11.63114 C160.88316,11.27006 161.47788,11.00456 162.12924,10.83464 C162.7806,10.66472 163.44612,10.57976 164.1258,10.57976 C164.89044,10.57976 165.62322,10.62224 166.32414,10.7072 C167.02506,10.79216 167.65164,10.9196 168.20388,11.08952 L167.60916,14.02064 Z" id="Path" fill="#000000"></path>
        </g>
    </g>
</svg>

<svg xmlns="http://www.w3.org/2000/svg" width="182" height="34" viewBox="0 0 182 34">
    <g fill="none" fill-rule="evenodd">
        <g>
            <g>
                <g fill="#003666" fill-rule="nonzero">
                    <path d="M69.333 32.583h-2.25v.667h6.667v-.667H72V21c-.5.583-1.417.583-2.333.583h-2.25v.667h1.916v10.333M27.5 32.583h-2.25v.667h6.667v-.667h-1.75V21c-.5.583-1.417.583-2.334.583h-2.166v.667h1.75l.083 10.333M77 32.583h-2.167v.667h6.75v-.667h-1.916v-10.25h4.75v10.25h-1.75v.667h6.583v-.667h-2.083V21c-.584.583-1.5.583-2.417.583h-5V17.75c0-2.583.917-4.667 3.917-4.667 1.166 0 2 .5 2 1 0 .334-.25.417-.5.584-.417.166-.667.583-.667 1.083 0 .75.667 1.25 1.333 1.25.917 0 1.584-.75 1.584-1.75 0-1.25-1.25-2.833-3.917-2.833-4.667 0-6.333 3.75-6.333 7.333v1.833H74.75v.667h2.417v10.333M6.833 24.75C9.667 25.333 11 27.083 11 29c0 2.167-1.75 3.917-4.417 3.917-2.666 0-5.333-2.167-5.75-6.667h-.75v7.167h.75c.084-.5.25-.834.834-.834 1.083 0 2.25 1.084 4.916 1.084 4 0 6.167-2.417 6.167-6.167 0-2.917-1.417-5.083-5.25-6L6 21.167c-3.417-.75-4.417-2.334-4.417-3.917 0-2.167 1.667-3.667 3.75-3.667 3.167 0 5.084 2.584 5.5 5.75h.834v-5.916h-.75c-.084.333-.25.75-.834.75-1 0-1.75-1.417-4.75-1.417S0 14.917 0 18.167c0 3.5 1.75 5.25 5.333 6.166l1.5.417M60.333 31.083c0 1.917 1.334 2.667 3.084 2.667 2.083 0 2.833-1.167 3.166-1.917l-.5-.333c-.333.583-.916 1.333-1.833 1.333-.75 0-1.25-.333-1.25-1.5v-9h3.083v-.666H63v-3.5h-.583c-.5 2.75-1.75 3.5-4.334 3.5v.666h2.25v8.75M51.917 32.583h2V24c0-1.333-.75-1.917-1.667-1.917-1.75 0-3 1.667-3.583 2.5v8.084h2v.583h-6.75v-.667H46v-10.25h-2.083v-.666h2.166c1.334 0 2 0 2.417-.584v2.334h.083c.584-.667 1.917-2.334 4.25-2.334 2.5 0 3.75 1.584 3.75 3.584v8h2.084v.583H52l-.083-.667zM23.75 29.417c-.25 1.5-1.5 3.333-3.583 3.333-2 0-3-1.167-3-3.833V26.25c0-2.583.916-4.417 3.083-4.417 1.25 0 2 .667 2 1.167 0 .25-.167.417-.333.583-.25.25-.334.5-.334.834 0 .666.584 1.166 1.25 1.166h.084c.75 0 1.416-.583 1.416-1.583 0-1.417-1.666-2.917-4.25-2.917-3.25 0-5.833 2.5-5.833 6.334 0 3.416 1.75 6.25 5.583 6.25 2.584 0 4.25-2.084 4.584-4.334h-.667M98.583 29.417c-.25 1.5-1.5 3.333-3.583 3.333-2 0-3-1.167-3-3.833V26.25c0-2.583.917-4.417 3.083-4.417 1.25 0 2 .667 2 1.167 0 .25-.166.417-.333.583-.167.25-.333.5-.333.834 0 .583.5 1.166 1.25 1.166S99.083 25 99.083 24c0-1.417-1.666-2.917-4.25-2.917-3.25 0-5.833 2.5-5.833 6.334 0 3.416 1.75 6.25 5.583 6.25 2.584 0 4.25-2.084 4.584-4.334l-.584.084zM42.167 29.333c-.334 1.667-1.584 3.417-3.5 3.417-1.917 0-3-1.25-3-3.583v-2.75h7.166c.167 0 .25-.084.25-.167v-.083-.417c0-1.75-1.583-4.583-5.083-4.583-3.083 0-5.25 3-5.25 6.25 0 3.916 2.333 6.25 5.417 6.25 2.416 0 4.25-1.75 4.75-4.334h-.75zM40.583 25.5c0 .083-.083.167-.166.167h-4.5v-.917c0-1.833.916-3 2.333-3 1.417 0 2.333 1.083 2.333 3v.75M17.5.667h.75c2.667 0 4.083 1.5 4.083 3.416 0 2.667-1.833 3.584-4 3.584H17.5v-7zm-2.667 15.666H13V17h7.333c2.5 0 5.5-1.417 5.5-4.75 0-2.667-2.333-4.083-4.666-4.167v-.166c2-.167 3.916-1.417 3.916-4.084 0-2.25-1.916-3.833-5.416-3.833H13v.583h1.833v15.75zM17.5 8.25h1.25c2.667 0 4.167 1.75 4.167 4 0 2.417-1.417 4.167-3.917 4.167h-1.5V8.25M26.917 11.917c0 3 2.083 5.5 5.166 5.5 3.084 0 5.167-2.5 5.167-5.5s-2.083-5.5-5.167-5.5c-3.083 0-5.166 2.416-5.166 5.5zm7.666.583c0 2.083-.25 4.167-2.583 4.167s-2.583-2.084-2.583-4.167v-1.25c0-2.083.166-4.167 2.583-4.167 2.417 0 2.583 2.084 2.583 4.167v1.25zM53.25 11.917c0 3 2.083 5.5 5.167 5.5 3 0 5.166-2.5 5.166-5.5s-2.083-5.5-5.166-5.5c-3.084 0-5.167 2.5-5.167 5.5zm7.583.583c0 2.083-.25 4.167-2.583 4.167s-2.583-2.084-2.583-4.167v-1.25c0-2.083.166-4.167 2.583-4.167 2.417 0 2.583 2.084 2.583 4.167v1.25z" transform="translate(-149.000000, -4475.000000) translate(149.000000, 4475.000000)"/>
                    <path d="M70.75 16.333h1.417v-7.25c0-1.25-.75-1.666-1.584-1.666-1.083 0-2.25 1.083-2.75 2.166v6.75h1.75V17h-6.166v-.667h1.916V7.5h-1.916v-.667h1.833c1.083 0 2 0 2.417-.5V8.25h.083c.917-1.167 2.25-2 3.75-2 2.333 0 3.167 1.667 3.167 3.083v7h1.416V17H70.75v-.667zM42.083 12.833c1.417.167 2 1 2 1.917 0 1.25-1 1.917-2.166 1.917-2.167 0-3-1.917-3.084-3.167h-.583l.083 3.75h.5c.084-.417.167-.5.417-.5.5 0 1.083.667 2.667.667 2.333 0 3.666-1.417 3.666-3.584 0-1.583-.916-2.916-2.833-3.25l-1.167-.166C40 10.167 39.5 9.667 39.5 8.75s.75-1.667 2.083-1.667c1.5 0 2.334.917 2.667 2.417h.5l-.083-3h-.5c0 .25-.167.417-.334.417-.416 0-1-.584-2.333-.584-1.833 0-3.167 1.25-3.167 3.084 0 2.25 1.5 3.083 3.084 3.333l.666.083M52.917 15.417c-.25.416-.75 1-1.5 1-.667 0-1.25-.25-1.25-1.25V7.5h2.75v-.667h-2.75v-3.5h-.5c-.417 2.417-1.75 3.5-3.75 3.5V7.5h1.75v7.667c0 1.666 1.166 2.333 2.833 2.333 1.5 0 2.333-.75 2.75-1.417l-.333-.666" transform="translate(-149.000000, -4475.000000) translate(149.000000, 4475.000000)"/>
                </g>
                <path fill="#CCC" d="M112 0H114V34H112z" transform="translate(-149.000000, -4475.000000) translate(149.000000, 4475.000000)"/>
                <text fill="#000" font-family="SST-Heavy, SST" font-size="21.24" font-weight="800" transform="translate(-149.000000, -4475.000000) translate(149.000000, 4475.000000)">
                    <tspan x="126" y="24">ADS</tspan>
                </text>
            </g>
        </g>
    </g>
</svg>
